X: 14541
T: Gan Ainm
R: jig
M: 6/8
K: Gminor
f|f2e d2B|cec AFA|B3 BAG|ABc F2f|
d2B dfd|egc AFA|B2G cAF|B3 B2:|
e|def fdB|fdB B2d|e/f/gg gec|gec c2e|
def fgf|b2g fdf|g2e AFA|B3 B2:|

